X:164
T: WIR WOLLN DIE MERSEBURGER BRUECKE BAUN
N: K2303
O: Europa, Mitteleuropa, Deutschland, Dresden; Leipzig
R: Kinder - Lied, Reigen, Tanz - Spiel
M: 4/4
L: 1/8
K: G
D2 | G2G2GGBB | G2G2D2
D2 | G2G2GGBB | G2G2D2
D2 | G4D2D2 | G4D2
D2 | G2G2G2B2 | G4D2
D2 | G2G2G2B2 | G4D2
D2 | G2G2G2B2 | G4D2
z2 | G2G2B2B2 | G4D2
D2 | G2G2D2D2 | G2G2D2
D2 | E2E2F2F2 | G4z2
D2 | B2B2A2A2 | G4z2

